X:1
T:Charles Wesley, 1739-1746 66. 86. (S. M.)
T:D Major Daniel Read, 1795
T:Barnstable No copyright. Transcribed from The American Singing Book, 1786.
%%score [ 1 2 3 4 ]
L:1/8
M:2/2
K:D
V:1 treble nm="Treble" snm="Tr."
V:2 treble nm="Counter" snm="C."
V:3 treble-8 nm="Tenor" snm="T."
V:4 bass nm="Bass" snm="B."
V:1
 A4 | A2 B2 c2 dA | AB c4 A2 | z A A2 d2 d2- | d2 e2 f4 | f2 d2 d3 e | A2 B2 (3ABc d2- | d2 z4 z2 | %8
w: ||||||||
 z8 | A2 A2 B2 c2 | dA ed c4 | d2 d2 df fd | e2 e2 f4 | z8 | z8 | z8 | z8 | dcBA B2 A2 | %18
w: |||Lift your heads, * e- *|ter- nal gates;||||||
 A2 z2 dedc | dg/f/ e2 [df]4 |] %20
w: ||
V:2
 F4 | F2 G2 A2 A2 | ^G2 A4 E2 | z E F2 FG (A2 | B2) A2 A4 | A2 A2 F3 E | (F2 G2) E2 F2- | %7
w: 1.~Hail|the day that saw|Him rise, ra-|vished from our * wish-|* ful eyes;|Christ a- while to|mor- * tals given,|
 F2 F>G FG A2 | z G F2 G2 F2 | F2 F2 G2 A2 | A2 ^G2 A4 | z8 | z8 | A2 A2 A2 AG | F2 G2 F4 | z8 | %16
w: * Re- * * as- scends|His na- tive heav'n.|There the pom- pous|tri- umph waits;|||Wide un- fold the *|ra- diant scene;||
 z8 | A A/G/FA G2 E2 | F2 z2 FGAA | B2 A2 A4 |] %20
w: |Take the * King of glo- ry|in, Take the King of|glo- ry in.|
V:3
 d4 | c<A B2 A2 d2 | cB A4 A3/2 B/ | cA d>c BA (A/B/c/A/ | d2) c2 d4 | d2 c<A f>edc | %6
w: ||||||
 d>c B2 AG A2- | A2 z4 z2 | z8 | d2 c<A B2 A2 | d2 cB A4 | z8 | z8 | z8 | z8 | z4 dcBA | %16
w: |||||||||Take the King of|
 G2 A2 B2 z2 | fedc B2 c2 | d2 z2 agfe | d2 c2 d4 |] %20
w: glo- ry in.||||
V:4
 D,4 | D,2 G,2 F,2 D,2 | E,2 A,,4 A,3/2 G,/ | F, F,/E,/ D,2 D,2 (D,2 | G,2) A,2 D,4 | %5
w: |||||
 D,2 D,2 D,>C,B,,A,, | D,2 E,2 E,2 D,2- | D,2 z4 z2 | z8 | D,2 D,2 G,2 F,2 | D,2 E,2 A,,4 | %11
w: ||||||
 D,2 D,2 [D,D]2 [D,D]2 | [A,,A,]2 [A,,A,]2 [D,D]4 | [D,D]2 A,2 F,2 F,E, | D,2 E,2 D,4 | %15
w: Lift your heads, e-|ter- nal gates;|Wide un- fold the *|ra- diant scene;|
 A,G,F,E, D,4 | (E,2 F,2) B,,2 z2 | D,A,,D,F, G,2 A,2 | D,2 z2 DCDF, | G,2 A,2 D,4 |] %20
w: Take in King of glo-|ry * in.||||

